X: 20964
T: Judge's Favourite
R: reel
M: 4/4
K: Gmajor
|:DG~G2 DE=FB|~c3c cBGD|~B3c dBcA|EccB c2Bc|
dedc BGBd|~c3 A B3G|G=FDB CDBC|DGGF G4:|
|:=f3g =fde=f|~g3=f d3c|Bdeg =fedc|E~c3 D~=F3|
DG~G2 DE=FB|~c3c cBGD|~B3c dBcA|DFAF G2:|

